X:1
T: The Dragoon
C:
R:Jig
Q:180
K:G
M:6/8
L:1/16
|:D6 G6|A2G2A2 B2c2d2|D6 G6|E2A2G2 F2E2D2|
D6 G6|A2G2A2 B2c2d2|e2f2g2 d2c2B2|A2B2G2 F2E2D2|
d6 g6|e2g2e2 d2B2G2|d6 g6|e2a2g2 f2e2d2|
g2b2g2 f2a2f2|e2g2e2 d2B2d2|e2f2g2 d2c2B2|A2B2G2 F2E2D2:|
